!!!OTL: 2088. St. Michael.
!!!ODT: 1890
!!!ARE: Europa, Mitteleuropa, Deutschland, Niederrhein, Niederkruechten
!!!SCT: E2088
!!!TXL: @@NDS
!!!YEM: Copyright 1995, estate of Helmut Schaffrath.
**kern	**text
*ICvox	*
*M4/4	*
*met(c)	*
*k[b-]	*
*F:	*
!LO:TX:a:t=Mel. mündlich 1890.	!
{4c	Sankt
=1	=1
4f	Mi-
[8f	-chel
8f]	de
(4c	bau-
8d)	-et
8e	een
=2	=2
2f	Klo-
4f}	-ſter
{4a	wol
=3	=3
4g	op
4f	den
8fL	houg-
8dJ	.
4e	-hen
=4	=4
2f	Berg;
4r}	.
{4c	he
=5	=5
4f	bau-
4f	-et
4g	ſech
4g	een
=6	=6
2a	Klo-
8aL	-ſter
8gJ}	.
{4f	wol
=7	=7
4g	vör
4g	de
8eL	gan-
8dJ	.
4e	-ʒe
=8	=8
2f	Welt.
4r}	.
==	==
!!!AGN: geistlich, Heiligen - Lied, Legende
!!!ONB: ESAC (Essen Associative Code) Database: ERK3
!!!AMT: simple quadruple
!!!AIN: vox
!!!EED: Helmut Schaffrath
!!!EEV: 1.0
!!!GTL: 4. Katholische Lieder: c) Heiligenlieder (Rufe und Legenden.)
!!!URL-scan: https://rosdok.uni-rostock.de/mcrviewer/recordIdentifier/rosdok_ppn745177999/iview2/phys_0780.iview2?x=110.7041879985502&y=11.8320197109133&scale=0.7014306698522887&rotation=0&layout=singlePageLayout
!!!ENC: Anna Maria Matuszewska
!!!EEV: 2025/14/01
*-	*-
